!!!COM:	L van Beethoven
!!!OTL:	String Quartet Op18 No3
**kern	**dynam
*I"Violoncello	*
*clefF4	*
*k[f#c#]	*
*D:	*
*M2/2	*
=1	=1
!LO:TX:a:B:t=Allegro	!
1r	.
=2	=2
1r	.
=3!|:	=3!|:
(1D	p
=4	=4
1E	.
=5	=5
1F#	.
=6	=6
1G	.
=7	=7
1A)	.
=8	=8
1AA	.
=9	=9
[1D	.
=10	=10
4D	.
4r	.
2r	.
=11	=11
1r	.
=12	=12
1r	.
=13	=13
!LO:TX:t=p cresc.	!
(1D	<
=14	=14
1E	.
=15	=15
[1F#	.
=16	=16
1F#)	f
=17	=17
4G	p
4r	.
2r	.
=18	=18
1r	.
=19	=19
1r	.
=20	=20
2r	.
4r	.
(4G	.
=21	=21
4A)	.
4AA	.
4r	.
(4A	.
=22	=22
4B)	.
4BB	.
4r	.
4B	.
=23	=23
!LO:TX:t=cresc.	!
[1c#	<
=24	=24
2c#	.
[2A	.
=25	=25
4A	.
(4C#	.
4D)	.
(4FF#	p
=26	=26
4GG)	[
4r	.
4AA	.
4r	.
=27	=27
(1DD	<
=28	=28
1C	>
=29	=29
1BB	]
=30	=30
1C#)	.
=31	=31
(1D	<
=32	=32
1c	>
=33	=33
1B	]
=34	=34
1c#)	.
=35	=35
4d	.
4r	.
2r	.
=36	=36
1r	.
=37	=37
4r	.
(4C#	.
4D)	.
4r	.
=38	=38
4G	.
4r	.
4A	.
4r	.
=39	=39
4D	.
4r	.
2r	.
=40	=40
1r	.
=41	=41
4r	.
(4A#	.
4B)	.
4r	.
=42	=42
4E	.
4r	.
4F#	.
4r	.
=43	=43
4BB	.
4r	.
4r	.
(4C	.
=44	=44
4D)	.
4r	.
4E	.
4r	.
=45	=45
4AA	.
4r	.
2r	.
=46	=46
1r	.
=47	=47
2r	.
4FF	.
4F	sf
=48	=48
4r	.
4F	sf
4r	.
4F	sf
=49	=49
4E	.
4r	.
4FF	.
4F	sf
=50	=50
4r	.
4F	sf
4r	.
4F	sf
=51	=51
8E	f
8e	p
8d	.
8c#	.
8BL	.
8A	.
8G#	.
8F#	.
=52	=52
!LO:TX:t=sempre stacc.	!
8EL	.
8e	.
8d	.
8c#	.
8BL	.
8A	.
8G#	.
8F#	.
=53	=53
8EL	.
8e	.
8d	.
8c#	.
8BL	.
8A	.
8G#	.
8F#	.
=54	=54
8EL	.
8EE	.
8FF#	.
8GG#	.
8AAL	.
8BB	.
8C#	.
8D	.
=55	=55
!LO:TX:t=cresc.	!
8EL	<
8F#	.
8G#	.
8E	.
8AL	.
8AA	.
8BB	.
8C#	.
=56	=56
8DL	.
8BB	.
8C#	.
8D	.
8EL	.
8D	.
8C#	.
8BB	[
=57	=57
4AA	p
4r	.
2r	.
=58	=58
2r	.
2e	.
=59	=59
2r	.
2e	.
=60	=60
2r	.
2e	.
=61	=61
1r	.
=62	=62
1r	.
=63	=63
1r	.
=64	=64
1r	.
=65	=65
1r	.
=66	=66
1r	.
=67	=67
1g	<
=68	=68
4c	p
2c	sf
(4c	.
=69	=69
4f)	.
2f	sf
(4f	.
=70	=70
4e)	.
(4e	.
4B)	.
(4B	.
=71	=71
4c)	.
(4c	.
4G)	.
(4G	.
=72	=72
4A)	.
2A	sf
(4A	.
=73	=73
4d)	.
2d	sf
(4d	.
=74	=74
4c)	.
(4c	.
4F)	.
(4F	.
=75	=75
4E)	.
4r	.
4E	.
4r	.
=76	=76
2AA	f
4C#	.
4E	.
=77	=77
2A	.
2B	.
=78	=78
1c#	sf
=79	=79
1d#	sf
=80	=80
1e	.
=81	=81
1E	.
=82	=82
4AA	ff
4C#	.
4E	.
4A	.
=83	=83
2c#	.
2d	.
=84	=84
1e	sf
=85	=85
1C#	sf
=86	=86
1D	sf
=87	=87
1DD#	sf
=88	=88
8EEL	sf
8FF#	.
8GG#	.
8AA	.
8BBL	.
8C#	.
8D	.
8E	.
=89	=89
4EE	.
4E	.
4E	.
4E	.
=90	=90
4AA	.
4r	.
(4A	p
4G	.
=91	=91
4F#	.
4E	.
4D	.
4C#)	.
=92	=92
(1BB	.
=93	=93
1E)	.
=94	=94
4AA	.
4r	.
!LO:TX:t=cresc.	!
(4A	<
4G	.
=95	=95
4F#	.
4E	.
4D	.
4C#)	.
=96	=96
(1BB	.
=97	=97
1E)	.
=98	=98
4AA	[
4r	.
4r	.
4E	p
=99	=99
4A	.
4r	.
4r	.
4E	.
=100	=100
4AA	.
4r	.
4r	.
4E	.
=101	=101
4A	.
4r	.
4r	.
4E	.
=102	=102
!LO:TX:t=cresc.	!
!LO:TX:t=cresc.	!
4AA	<
4E	.
4EE	.
4E	.
=103	=103
4AA	.
4E	.
4EE	.
4E	.
=104	=104
4AA	f
4r	.
2r	.
=105	=105
4BB-	f
4r	.
2r	.
=106	=106
4BB	f
4r	.
2r	.
=107	=107
4C	f
4r	.
2r	.
=108	=108
4C#	p
4r	.
2r	.
=109	=109
1r	.
=110:|!	=110:|!
4C#	p
4r	.
2r	.
=111	=111
1r	.
=112	=112
(1D	.
=113	=113
1E	.
=114	=114
1F	.
=115	=115
1G	.
=116	=116
1A)	.
=117	=117
(1AA	.
=118	=118
!LO:TX:t=cresc.	!
!LO:TX:t=cresc.	!
1BB-	<
=119	=119
1FF	.
=120	=120
1FF#	.
=121	=121
1GG)	.
=122	=122
(2EE-	f
2EE)	.
=123	=123
2FF	.
2FF	.
=124	=124
4BB-	.
4r	.
2r	.
=125	=125
1r	.
=126	=126
4r	.
(4AA	p
4BB-)	.
4r	.
=127	=127
4E-	.
4r	.
4F	.
4r	.
=128	=128
4BB-	.
4r	.
2r	.
=129	=129
4r	.
(4AA	.
4BB-)	.
4r	.
=130	=130
4r	.
(4A	.
4B-)	.
4r	.
=131	=131
4r	.
(4FF#	.
4GG)	.
4r	.
=132	=132
4r	.
(4F#	.
4G)	.
4r	.
=133	=133
4C	.
4r	.
4D	.
4r	.
=134	=134
4GG	.
4r	.
!LO:TX:t=cresc.	!
4BB-	<
4r	.
=135	=135
4C	.
4r	.
4D	.
4r	.
=136	=136
1GG	f
=137	=137
(1F	sf
=138	=138
4E)	.
4r	.
2r	.
=139	=139
4r	.
4EE	.
4EE	.
4EE	.
=140	=140
1AA	sf
=141	=141
(1G	sf
=142	=142
4F#)	.
4r	.
2r	.
=143	=143
4r	.
4FF#	.
4FF#	.
4FF#	.
=144	=144
4BB	.
4r	.
2r	.
=145	=145
1BB	f
=146	=146
1D	f
=147	=147
1GG	f
=148	=148
1GG#	f
=149	=149
1AA	f
=150	=150
1FF#	f
=151	=151
1DD	f
=152	=152
4CC#	.
(2C#	sf
4BB)	sf
=153	=153
(4AA	.
4GG#	.
4FF#	.
4DD)	.
=154	=154
4CC#	.
(2C#	sf
4BB)	sf
=155	=155
(4AA	.
4GG#	.
4FF#	.
4DD)	.
=156	=156
12CC#L	ff
12CC#	.
12CC#	.
12CC#L	.
12CC#	.
12CC#	.
12CC#L	.
12CC#	.
12CC#	.
12CC#L	.
12CC#	.
12CC#	.
=157	=157
12CC#L	.
12CC#	.
12CC#	.
12CC#L	.
12CC#	.
12CC#	.
12CC#L	.
12CC#	.
12CC#	.
12CC#L	.
12CC#	.
12CC#	.
=158	=158
[1CC#	p
=159	=159
[1CC#	>
=160	=160
[1CC#	pp
=161	=161
1CC#	.
=162	=162
(2DD	.
2D)	.
=163	=163
(1E	.
=164	=164
1F#	.
=165	=165
1G)	.
=166	=166
(1A	.
=167	=167
1AA)	.
=168	=168
(1AA#	.
=169	=169
1BB)	.
=170	=170
!LO:TX:t=cresc.	!
!LO:TX:t=cresc.	!
(1C	<
=171	=171
1FF#)	.
=172	=172
(1GG)	.
=173	=173
1AA	.
=174	=174
1BB)	.
=175	=175
1BB	sf
=176	=176
1C	p
=177	=177
1C#	sf
=178	=178
1D	p
=179	=179
1D#	sf
=180	=180
(1E	p
=181	=181
!LO:TX:t=cresc.	!
1F#	<
=182	=182
1G)	.
=183	=183
1G#	.
=184	=184
8AAL	p
8A	.
8G	.
8F#	.
8EL	.
8D	.
8C#	.
8BB	.
=185	=185
8AAL	.
8A	.
8G	.
8F#	.
8EL	.
8D	.
8C#	.
8BB	.
=186	=186
!LO:TX:t=sempre stacc.	!
8AAL	.
8A	.
8G	.
8F#	.
8EL	.
8D	.
8C#	.
8BB	.
=187	=187
8AAL	.
8BB	.
8C#	.
8D	.
8EL	.
8F#	.
8G	.
8G#	.
=188	=188
!LO:TX:t=cresc.	!
!LO:TX:t=cresc.	!
8AL	<
8A#	.
8B	.
8A#	.
8BL	.
8A	.
8G	.
8F#	.
=189	=189
8GL	.
8E	.
8F#	.
8G	.
8AL	.
8G	.
8F#	.
8E	.
=190	=190
4D	p
4r	.
2r	.
=191	=191
2.AA	.
8r	.
(16AA	.
16BB)	.
=192	=192
2.C#	.
8r	.
(16C#	.
16D)	.
=193	=193
2.E	.
8r	.
(16E	.
16F#)	.
=194	=194
!LO:TX:t=decresc.	!
4G	.
4G	.
4G	.
4G	.
=195	=195
2.G	.
8r	.
(16c#	.
16d)	.
=196	=196
4e	.
4e	.
4e	.
4e	.
=197	=197
[1e	pp
=198	=198
[1e	.
=199	=199
!LO:TX:t=cresc.	!
[1e	<
=200	=200
1e	.
=201	=201
4f	p
2F	sf
(4F	.
=202	=202
4B-)	.
2B-	sf
(4B-	.
=203	=203
4A)	.
(4A	.
4E)	.
(4E	.
=204	=204
4F)	.
(4F	.
4C)	.
(4C	.
=205	=205
4D)	.
2D	sf
(4D	.
=206	=206
4G)	.
2G	sf
(4G	.
=207	=207
4F)	.
(4F	.
4B-)	.
(4B-	.
=208	=208
4A)	.
4r	.
4AA	.
4r	.
=209	=209
2DD	f
4FF#	.
4AA	.
=210	=210
2D	.
2E	.
=211	=211
1F#	sf
=212	=212
1G#	sf
=213	=213
!LO:TX:t=cresc.	!
1A	<
=214	=214
1AA	.
=215	=215
4DD	ff
4D	.
4F#	.
4A	.
=216	=216
2d	.
2e	.
=217	=217
1f#	sf
=218	=218
1F#	sf
=219	=219
1G	sf
=220	=220
1GG#	sf
=221	=221
8AAL	sf
8BB	.
8C#	.
8D	.
8EL	.
8F#	.
8G	.
8A	.
=222	=222
4AA	.
4A	.
4A	.
4A	.
=223	=223
4D	.
4r	.
(4d	p
4c	.
=224	=224
4B	.
4A	.
4G	.
4F#)	.
=225	=225
(1E	.
=226	=226
1A)	.
=227	=227
4D	.
4r	.
!LO:TX:t=cresc.	!
!LO:TX:t=cresc.	!
(4D	.
4C	<
=228	=228
4BB	.
4AA	.
4GG	.
4FF#)	.
=229	=229
(1EE	.
=230	=230
1AA)	.
=231	=231
4DD	[
4r	.
4r	.
4A	p
=232	=232
4d	.
4r	.
4r	.
4A	.
=233	=233
4D	.
4r	.
4r	.
4A	.
=234	=234
4d	.
4r	.
4r	.
4A	.
=235	=235
!LO:TX:t=cresc.	!
4D	<
4A	.
4AA	.
4A	.
=236	=236
4D	.
4A	.
4AA	.
4A	.
=237	=237
4D	f
4r	.
2r	.
=238	=238
4E-	f
4r	.
2r	.
=239	=239
4E	f
4r	.
2r	.
=240	=240
4F	f
4r	.
2r	.
=241	=241
4F#	p
4r	.
2r	.
=242	=242
1r	.
=243	=243
(1G	.
=244	=244
1A	.
=245	=245
1B-	.
=246	=246
1c)	.
=247	=247
1d	.
=248	=248
1D	.
=249	=249
4E-	pp
2E-	.
(4E-	.
=250	=250
4A-)	.
2A-	.
(4A-	.
=251	=251
4G)	.
(4G	.
4D)	.
(4D	.
=252	=252
4E-)	.
(4E-	.
4BB-)	.
4BB-	.
=253	=253
4E-	.
2E-	.
(4E-	.
=254	=254
4D)	.
2D	.
(4D	.
=255	=255
!LO:TX:t=cresc.	!
4C#)	<
(4C#	.
4D)	.
(4D	.
=256	=256
4GG)	.
(4GG	.
4AA)	.
4AA	.
=257	=257
4DD	p
4r	.
2r	.
=258	=258
1r	.
=259	=259
(1AA	.
=260	=260
[1G)	.
=261	=261
!LO:TX:t=cresc.	!
8GL	<
(8F#	.
8E	.
8D	.
8C#L	.
8D	.
8F#	.
8D)	.
=262	=262
(8DL	.
8C#	.
8BB	.
8AA	.
8GG#L	.
8AA	.
8BB	.
8AA)	.
=263	=263
1D	.
=264	=264
1GG#	f
=265	=265
[1AA	p
=266	=266
!LO:TX:t=cresc.	!
[1AA	<
=267	=267
[1AA	.
=268	=268
4AA	.
4AA	.
4AA	.
4AA	.
=269	=269
4D	f
4r	.
2r	.
=270	=270
4AA	ff
4r	.
2r	.
=271	=271
4DD	.
4r	.
2r	.
=272	=272
*k[b-e-]	*
*B-:	*
*M2/4	*
!LO:TX:a:B:t=Andante con moto	!
(4BB-	p
8AAL	.
8BB-)	.
=273	=273
(8.FFL	.
16C	.
8BB	.
8C)	.
=274	=274
(8.FFL	.
16D	.
8C#	.
8D)	.
=275	=275
(4C	.
4F)	.
=276	=276
(4BB-	.
8CL	.
8BB-)	.
=277	=277
8FFL	.
8F	.
8F	.
8F	.
=278	=278
8FFL	.
8F	.
8F	.
8F	.
=279	=279
(4C	.
4F)	.
=280	=280
(4BB-	.
[4E-)	.
=281	=281
!LO:TX:t=cresc.	!
!LO:TX:t=cresc.	!
8E-L	<
(8D	.
8CL	.
8BB-)	.
=282	=282
(8.DL	.
16E)	.
8FL	.
8FF	.
=283	=283
8BB-L	p
8B-	.
4r	.
=284	=284
2r	.
=285	=285
4r	.
(32BB-LLL	p
32C	.
32D	.
32E-	.
32F	.
32G	.
32A)	.
32B-	.
=286	=286
(8AL	.
16B-)	.
16r	.
(8F#L	.
16G)	.
16r	.
=287	=287
!LO:TX:t=cresc.	!
!LO:TX:t=cresc.	!
(8EL	<
8F	.
8BB-	.
8BB)	.
=288	=288
8CL	p
8r	.
4r	.
=289	=289
16CCLL	.
16C	.
16E	.
16C	.
16FLL	.
16C	.
16F	.
16C	.
=290	=290
8CL	.
8r	.
4r	.
=291	=291
16CCLL	.
16C	.
16E	.
16C	.
16FLL	.
16C	.
16F	.
16C	.
=292	=292
!LO:TX:t=decresc	!
8CL	.
8r	.
4r	.
=293	=293
2r	.
=294	=294
2r	.
=295	=295
2r	.
=296	=296
2r	.
=297	=297
4r	.
8r	.
16r	.
16AA	pp
=298	=298
16BB-LL	.
16r	.
16GG	.
16r	.
16EE-	.
16r	.
16r	.
16BB-	.
=299	=299
16AALL	.
16r	.
16FF	.
16r	.
16CC	.
16r	.
16AA	.
16r	.
=300	=300
!LO:TX:t=cresc.	!
!LO:TX:t=cresc.	!
16BB-LL	.
16r	<
16GG	.
16r	.
16EE	.
16r	.
16CC	.
16r	[
=301	=301
4DD-	f
(4D-	.
=302	=302
4BB-	.
4GG)	.
=303	=303
(4GG	sf
8AA-J)	.
(8AAL	sf
=304	=304
8BB-L)	.
4BB-	ff
8BB-	.
=305	=305
8BB-L	p
8r	.
8r	.
16.B-	pp
32B-	.
=306	=306
8B-L	.
8r	.
8r	.
!LO:TX:t=cresc.	!
!LO:TX:t=cresc.	!
16.B-	<
32B-	.
=307	=307
(4B	ff
8cL	.
8C)	.
=308	=308
16FLL	p
16FF	.
16FF	.
16FF	.
16FFLL	.
16FF	.
16FF	.
16FF	.
=309	=309
16FFLL	.
16FF	.
16FF	.
16FF	.
16FFLL	.
16FF	.
16FF	.
16FF	.
=310	=310
!LO:TX:t=cresc.	!
16FFLL	<
(8F	.
32G	.
32A)	.
16B-LL	.
16c	.
16d	.
16e	[
=311	=311
16fLL	p
16f	.
16B-	.
16B-	.
(16cLL	.
16B	.
16c	.
16C)	.
=312	=312
16FFLL	.
16F	.
16F	.
16F	.
16FLL	.
16F	.
16F	.
16F	.
=313	=313
16FFLL	.
16F	.
16F	.
16F	.
16FLL	.
16F	.
16F	.
16F	.
=314	=314
!LO:TX:t=cresc.	!
!LO:TX:t=cresc.	!
16FFLL	<
16F	.
16F	.
16F	.
16FFLL	.
16F	.
16F	.
16F	.
=315	=315
16FFLL	sf
16F	.
16F	.
16F	.
16FFLL	f
16F	.
16FF	.
16F	.
=316	=316
2r	.
=317	=317
2r	.
=318	=318
(4BB-	p
8AAL	.
8BB-)	.
=319	=319
8.FFL	.
16C	.
8BBL	.
8C	.
=320	=320
8.FFL	.
16D	.
8C#L	.
8D	.
=321	=321
(4C	.
4FF)	.
=322	=322
8BB-L)	.
(8BB-	.
8C	.
8BB-)	.
=323	=323
8FFL	.
8F	.
8F	.
8F	.
=324	=324
8FFL	.
8F	.
8F	.
8F	.
=325	=325
(4C	.
4F)	.
=326	=326
(4BB-	.
4E-)	.
=327	=327
!LO:TX:t=cresc.	!
!LO:TX:t=cresc.	!
8E-L	<
8D	.
8C	.
8BB-	.
=328	=328
8.E-L	.
16E	.
8FL	.
8FF	.
=329	=329
8BB-L	p
8B-	.
4r	.
=330	=330
2r	.
=331	=331
4r	.
(32BB-LLL	.
32C	.
32D	.
32E-	.
32F	.
32G	.
32A	.
32B-)	.
=332	=332
(8AL	.
16B-)	.
16r	.
(8E-L	.
16E)	.
16r	.
=333	=333
8FL	.
8FF	.
4r	.
=334	=334
16BB-	pp
16BB-	.
16BB-	.
16BB-	.
16BB-LL	.
16BB-	.
16BB-	.
16BB-	.
=335	=335
!LO:TX:t=cresc.	!
16C-LL	<
16C-	.
16C-	.
16C-	.
16AA-LL	.
16AA-	.
16AA-	.
16AA-	.
=336	=336
16BB-LL	.
16BB-	.
16BB-	.
16BB-	.
16BB-LL	.
16BB-	.
16BB-	.
16BB-	.
=337	=337
16E-LL	p
16E-	.
16D-	.
16D-	.
16CLL	.
16C	.
16BB-	.
16BB-	.
=338	=338
!LO:TX:t=cresc.	!
16AA-LL	<
16AA-	.
16AA-	.
16AA-	.
16AALL	.
16AA	.
16AA	.
16AA	.
=339	=339
16BB-LL	.
16BB-	.
16BB-	.
16BB-	.
16GG-LL	.
16GG-	.
16GG-	.
16GG-	.
=340	=340
16AA-LL	.
16AA-	.
16AA-	.
16AA-	.
16AA-LL	.
16AA-	.
16AA	.
16AA	.
=341	=341
16BB-LL	.
16BB-	.
16BB-	.
16BB-	.
16GG-LL	.
16GG-	.
16GG	.
16GG	.
=342	=342
16AA-LL	f
16AA-	.
16AA-	.
16AA-	.
16AA-LL	.
16AA-	.
16AA-	.
16AA-	.
=343	=343
(8DD-L	p
8FF	.
8GG-	.
8FF)	.
=344	=344
(8EE-L	.
8GG-	.
8AA-	.
8GG-)	.
=345	=345
(8FFL	.
8AA-	.
8BB-	.
8AA-)	.
=346	=346
8GG-L	.
(8GG-	.
8AA-)	.
8AA-	.
=347	=347
(16D-LL	.
16A-)	.
16A-	.
16A-	.
16A-LL	.
16A-	.
16A-	.
16A-	.
=348	=348
16A-LL	.
16A-	.
16A-	.
16A-	.
16A-LL	.
16A-	.
16A-	.
16A-	.
=349	=349
!LO:TX:t=cresc.	!
(16A-LL	<
16d-)	.
16d-	.
16d-	.
16d-LL	.
16d-	.
16d-	.
16d-	.
=350	=350
16d-LL	.
16B-	.
16B-	.
16B-	.
16cLL	.
16c	.
16C	.
16C	.
=351	=351
8FL	p
8r	.
4r	.
=352	=352
16FFLL	.
8F	.
8F	.
8F	.
16F	.
=353	=353
8BB-L	.
8r	.
4r	.
=354	=354
16BB-LL	.
8B-	.
8B-	.
8B-	.
16B-	.
=355	=355
8E-L	.
8r	.
4r	.
=356	=356
16EE-LL	.
8E-	.
8E-	.
8E-	.
16E-	.
=357	=357
(8EE-L	pp
8GG-	.
8AA-)	.
[8GG-	.
=358	=358
!LO:TX:t=cresc.	!
8GG-L	<
[8FF-	.
8FF-	.
[8EE-	.
=359	=359
8EE-L	.
8DD-	.
8CC	.
8BB-	.
=360	=360
8AAL	.
8AA-	.
8GG	.
8GG-	.
=361	=361
8FFL	p
8r	.
4r	.
=362	=362
16FFLL	.
16F	.
16A	.
16F	.
16B-LL	.
16F	.
16B-	.
16F	.
=363	=363
8FL	.
8r	.
4r	.
=364	=364
16FFLL	.
16F	.
16A	.
16F	.
16B-LL	.
16F	.
16B-	.
16F	.
=365	=365
8FL	.
8r	.
4r	.
=366	=366
2r	.
=367	=367
2r	.
=368	=368
2r	.
=369	=369
2r	.
=370	=370
4r	.
8r	.
16r	.
16D	pp
=371	=371
16E-LL	.
16r	.
16C	.
16r	.
16AA	.
16r	.
16r	.
16E-	.
=372	=372
16DLL	.
16r	.
16BB-	.
16r	.
16FF	.
16r	.
16r	.
16D	.
=373	=373
!LO:TX:t=cresc.	!
16E-LL	<
16r	.
16C	.
16r	.
16AA	.
16r	.
16FF	.
16r	[
=374	=374
4GG-	f
(4GG-	.
=375	=375
4EE-	.
4CC)	.
=376	=376
(4C	sf
8D-J)	.
(8DJ	sf
=377	=377
8E-L)	.
4E-	ff
8E-	[
=378	=378
8E-L	p
8r	.
8r	.
16.e-	pp
32e-	.
=379	=379
8e-L	.
8r	.
8r	.
!LO:TX:t=cresc.	!
16.e-	.
32e-	.
=380	=380
(4e	ff
8fL)	.
8F	.
=381	=381
(16FLL	p
16D	.
16C	.
16BB-)	.
(8AAL	.
8BB-)	.
=382	=382
(16FLL	.
16E-	.
16D	.
16C)	.
(8BBL	.
8C)	.
=383	=383
(16GLL	.
16F	.
16E-	.
16D)	.
(8C#L	.
8D)	.
=384	=384
(8CL	.
8G	.
8F	.
8FF)	.
=385	=385
(8BB-L	.
8D	.
8E-	.
8D)	.
=386	=386
(8CL	.
8E-	.
8F	.
8E-)	.
=387	=387
(8DL	.
8F	.
8G	.
8F)	.
=388	=388
!LO:TX:t=cresc.	!
(16FLL	<
16E	.
16D	.
16C)	.
(8.FL	.
16E-)	.
=389	=389
(16E-LL	.
16D	.
16C	.
16BB-)	.
8.E-L	.
16E-	.
=390	=390
(8.CL	.
16D)	.
(8E-L	.
8F)	.
=391	=391
24BB-LL	sf
24BB-	.
24BB-	.
24BB-	.
24BB-	.
24BB-	.
24BB-LL	sf
24E-	.
24E-	.
24E-	.
24E-	.
24E-	.
=392	=392
24E-LL	sf
24C	.
24C	.
24C	.
24C	.
24C	.
24CLL	sf
24BB-	.
24BB-	.
24BB-	.
24BB-	.
24BB-	.
=393	=393
8AAL	f
8r	.
4r	.
=394	=394
2r	.
=395	=395
2r	.
=396	=396
(8B-L	p
8d	.
8e-	.
8d)	.
=397	=397
(8.B-L	.
32A-	.
32G)	.
(8FL	.
8G)	.
=398	=398
(8E-L	.
8G	.
8A-	.
8G)	.
=399	=399
!LO:TX:t=cresc.	!
(8AL	<
8B-	.
8E-	.
8F)	.
=400	=400
24BB-LL	sf
24BB-	.
24BB-	.
24BB-	.
24BB-	.
24BB-	.
24BB-LL	sf
24E-	.
24E-	.
24E-	.
24E-	.
24E-	.
=401	=401
24E-LL	sf
24C	.
24C	.
24C	.
24C	.
24C	.
24CLL	sf
24BB-	.
24BB-	.
24BB-	.
24BB-	.
24BB-	.
=402	=402
24BB-LL	sf
24AA	.
24AA	.
24AA	.
24AA	.
24AA	.
24AALL	sf
24GG	.
24GG	.
24GG	.
24GG	.
24GG	.
=403	=403
24GG-LL	ff
24GG-	.
24GG-	.
24GG-	.
24GG-	.
24GG-	.
24GG-LL	.
24GG-	.
24GG-	.
24GG-	.
24GG-	.
24GG-	.
=404	=404
2FF	f
=405	=405
4EE	[
4EE-	.
=406	=406
(8DDL	pp
8FF	.
8GG-	.
8FF)	.
=407	=407
(8GG-L	.
8BB-	.
8C-	.
8BB-)	.
=408	=408
(8AAL	.
8A	.
8B-L	.
8E)	.
=409	=409
(8FL	.
8E	.
8F	.
8FF)	.
=410	=410
16BB-LL	pp
16BB-	.
16BB-	.
16BB-	.
16BB-LL	.
16BB-	.
16BB-	.
16BB-	.
=411	=411
16BB-LL	.
16BB-	.
16BB-	.
16BB-	.
16BB-LL	.
16BB-	.
16BB-	.
16BB-	.
=412	=412
16BB-LL	.
16BB-	.
16BB-	.
16BB-	.
16BB-LL	.
16BB-	.
16BB-	.
16BB-	.
=413	=413
16BB-LL	.
16BB-	.
16BB-	.
16BB-	.
16BB-LL	.
16BB-	.
16BB-	.
16BB-	.
=414	=414
8BB-L	.
8r	.
8r	.
16r	.
16B-	.
=415	=415
(8cL	.
8B-)	.
8r	.
16r	.
16B-	.
=416	=416
(8cL	.
8B-)	.
8r	.
16r	.
16B-	.
=417	=417
8FL	p
8r	.
8F#L	.
8r	.
=418	=418
8GL	.
8r	.
4r	.
=419	=419
!LO:TX:t=smor -	!
8E-L	.
8r	.
4r	.
=420	=420
!LO:TX:t=zan  -	!
8FL	.
8r	.
4r	.
=421	=421
!LO:TX:t=do	!
8BB-L	.
8r	.
8BB-L	pp
8r	.
=422	=422
8BB-L	.
8r	.
4r	.
=423!|:	=423!|:
*k[f#c#]	*
*D:	*
*M3/4	*
!LO:TX:a:B:t=Allegro	!
4r	.
=424	=424
(2.D	p
=425	=425
[2.GG)	.
=426	=426
4GG	.
4GG	.
8FF#	.
8DD	.
=427	=427
4AA	.
4r	.
4r	.
=428	=428
(2.D	<
=429	=429
2BB)	>
4BB	]
=430	=430
4AA	.
4FF#	.
4CC#	.
=431!|:	=431!|:
4FF#	.
4r	.
=	=
4r	.
=432	=432
(2B	.
4A	.
=433	=433
4G	.
4F#	.
4E)	.
=434	=434
[2.D	.
=435	=435
2D	.
4r	.
=436	=436
(2.G	pp
=437	=437
[2.C)	.
=438	=438
4C	.
4C	.
8BBL	.
8GG	.
=439	=439
4D	.
4r	.
4F#	sf
=440	=440
4G	.
4r	.
4E	sf
=441	=441
4F#	.
4r	.
4C#	sf
=442	=442
4D	.
4r	.
4E	sf
=443	=443
!LO:TX:t=cresc.	!
2.E#	<
=444	=444
[2.F#	.
=445	=445
2F#	p
4r	.
=446	=446
2.r	.
=447	=447
2.r	.
=448	=448
(2.G	<
=449	=449
4F#)	[
4r	.
4r	.
=450	=450
2.r	.
=451	=451
2.r	.
=452	=452
[2.GG	<
=453	=453
2GG	>
4FF#	]
=454	=454
4GG	.
4r	.
4r	.
=455	=455
4AA	.
4r	.
4r	.
=456	=456
4DD	.
4r	.
4F#	p
=457	=457
(4F#	.
4G)	.
4E	.
=458	=458
(4D	.
[2C#)	.
=459	=459
2.C#	.
=460	=460
[2.D	.
=461	=461
2.D	.
=462	=462
!LO:TX:t=cresc.	!
[2.D#	.
=463	=463
2.D#	.
=464	=464
4E	.
4r	.
4F#	sf
=465	=465
4G	.
4r	.
4G#	sf
=466	=466
[2.A	.
=467	=467
2.A	.
=468	=468
[2.AA	.
=469	=469
2AA	.
4AA#	sf
=470	=470
(4BB	.
4AA#	.
4BB	.
=471	=471
4GG#	.
4FF#	.
4GG#)	.
=472	=472
[2.AA	.
=473	=473
2AA	>
4AA#	]
=474	=474
!LO:TX:t=cresc.	!
(4BB	p
4AA#	.
4BB	.
=475	=475
4GG#	.
4FF#	.
4GG#)	.
=476	=476
[2.AA	p
=477	=477
[2.AA	.
=478	=478
[2.AA	.
=479	=479
2AA	.
(4G	.
=480	=480
4F#)	.
(4B	.
4A	.
=481	=481
4G	.
4F#	.
4F#	.
=482	=482
!LO:TX:t=cresc.	!
4D)	<
4BB	.
4AA	.
=483	=483
4GG	.
4FF#	.
4EE	.
=484	=484
4DD	sfp
4FF#	.
4AA	.
=485	=485
4D	.
4r	.
=:|!|:	=:|!|:
*k[b-]	*
*d:	*
4r	.
=486	=486
(2.D	p
=487	=487
2.C	.
=488	=488
2.BB-)	sf
=489	=489
2.AA	.
=490	=490
(2.D	.
=491	=491
2.C	.
=492	=492
2.BB-	sf
=493	=493
2.AA)	.
=494	=494
!LO:TX:t=cresc.	!
(2.D	<
=495	=495
2.D#)	.
=496	=496
4E	p
4r	.
4EE	.
=497	=497
4AA	.
4r	.
=:|!	=:|!
4r	.
=498	=498
(2.C	p
=499	=499
2.BB-	.
=500	=500
2.AA	sf
=501	=501
2.GG)	.
=502	=502
(2.G	.
=503	=503
2.F	.
=504	=504
2.E	sf
=505	=505
2.D)	.
=506	=506
(2.D	.
=507	=507
2.C	.
=508	=508
2.BB-	sf
=509	=509
2.AA)	.
=510	=510
(2.BB-	sf
=511	=511
2.AA)	.
=512	=512
!LO:TX:t=cresc.	!
[2.BB-	<
=513	=513
2.BB-	.
=514	=514
4AA	p
4r	.
4r	.
=515	=515
2.r	.
=516	=516
2.r	.
=517	=517
2.r	.
=518	=518
!LO:TX:t=pizz.	!
4G	pp
4r	.
4r	.
=519	=519
4E	.
4r	.
4r	.
=520	=520
4C#	.
4r	.
4r	.
=521	=521
4AA	.
4r	.
4r	.
=522||	=522||
*k[f#c#]	*
*D:	*
!LO:TX:t=arco	!
(2.D	p
=523	=523
[2.GG)	.
=524	=524
4GG	.
4GG	.
8FF#L	.
8CC#	.
=525	=525
4AA	.
4r	.
4r	.
=526	=526
(2.D	<
=527	=527
2BB)	>
4BB	]
=528	=528
4AA	.
4FF#	.
4C#	.
=529	=529
4FF#	.
4r	.
4r	.
=530	=530
(2.D	.
=531	=531
2GG)	.
[4G	.
=532	=532
4G	.
4G	.
8F#L	.
8D	.
=533	=533
4A	.
4r	.
4r	.
=534	=534
(2.D	<
=535	=535
2.BB)	>
=536	=536
4AA	]
4FF#	.
4C#	.
=537	=537
4FF#	.
4r	.
4r	.
=538	=538
(2B	.
4A	.
=539	=539
4G	.
4F#	.
4E)	.
=540	=540
[2.D	.
=541	=541
2D	.
4r	.
=542	=542
2.G	pp
=543	=543
[2.C	.
=544	=544
4C	.
4C	.
8BBL	.
8GG	.
=545	=545
4D	.
4r	.
4F#	sf
=546	=546
4G	.
4r	.
4E	sf
=547	=547
4F#	.
4r	.
4C#	sf
=548	=548
4D	.
4r	.
4E	sf
=549	=549
!LO:TX:t=cresc.	!
(2.E#	<
=550	=550
[2.F#)	.
=551	=551
2F#	p
4r	.
=552	=552
2.r	.
=553	=553
2.r	.
=554	=554
(2.G	<
=555	=555
4F#)	[
4r	.
4r	.
=556	=556
2.r	.
=557	=557
2.r	.
=558	=558
[2.GG	<
=559	=559
2GG	[
4FF#	.
=560	=560
4GG	.
4r	.
4r	.
=561	=561
4AA	.
4r	.
4r	.
=562	=562
4D	.
4r	.
4F#	p
=563	=563
(4F#	.
4G)	.
4E	.
=564	=564
(4D	.
[2C#)	.
=565	=565
2.C#	.
=566	=566
[2.D	.
=567	=567
2.D	.
=568	=568
!LO:TX:t=cresc.	!
[2.D#	<
=569	=569
(2.D#	.
=570	=570
4E)	[
4r	.
4F#	sf
=571	=571
4G	.
4r	.
4G#	sf
=572	=572
[2.A	.
=573	=573
2.A	.
=574	=574
[2.AA	.
=575	=575
2AA	.
4AA#	sf
=576	=576
(4BB	.
4AA#	.
4BB	.
=577	=577
4GG#	.
4FF#	.
4GG#)	.
=578	=578
[2.AA	<
=579	=579
(2AA	>
4AA#)	]
=580	=580
!LO:TX:t=cresc.	!
(4BB	<
4AA#	.
4BB	.
=581	=581
4GG#	.
4FF#	.
4GG#)	.
=582	=582
[2.AA	p
=583	=583
[2.AA	.
=584	=584
[2.AA	.
=585	=585
2AA	.
(4G	.
=586	=586
4F#)	.
(4B	.
4A	.
=587	=587
4G	.
4F#	.
4E	.
=588	=588
!LO:TX:t=cresc.	!
4D)	<
(4BB	.
4AA	.
=589	=589
4GG	.
4FF#	.
4EE)	.
=590	=590
4DD	sfp
4FF#	.
4AA	.
=591	=591
4D	.
4r	.
=	=
*M6/8	*
!LO:TX:a:B:t=Presto	!
4r	.
=592!|:	=592!|:
2.r	.
=593	=593
2.r	.
=594	=594
2.r	.
=595	=595
2.r	.
=596	=596
2.r	.
=597	=597
2.r	.
=598	=598
2.r	.
=599	=599
2.r	.
=600	=600
4r	.
8r	.
[4.d#	<
=601	=601
(4.d#	>
4e)	]
8r	.
=602	=602
4r	.
8r	.
(4.e	<
=603	=603
4.f#	>
4g)	]
8r	.
=604	=604
4r	.
8r	.
(4.B	.
=605	=605
4.c#	.
4d)	.
8D	.
=606	=606
4G	.
8E	.
4A	.
8AA	.
=607	=607
[4.D	.
8DL	.
(8F#	.
8E#)	.
=608	=608
(8F#L	.
8G)	.
8A	.
8AL	.
8A	.
8A	.
=609	=609
(4.A	sf
8GL)	.
(8A	.
8G#)	.
=610	=610
(8AL	.
8B)	.
8c	.
8cL	.
8c	.
8c	.
=611	=611
(4.c	sf
4B)	.
8r	.
=612	=612
2.r	.
=613	=613
(4.A	sf
4g)	.
8r	.
=614	=614
(8AL	sf
8g)	.
8r	.
(8AL	sf
8g)	.
8r	.
=615	=615
(8AL	sf
[4g)	.
4g	.
8f#	.
=616	=616
4G	.
8E	.
4A	.
8AA	.
=617	=617
4D	.
8r	.
4.r	.
=618	=618
2.r	.
=619	=619
2.r	.
=620	=620
2.r	.
=621	=621
4D	.
8r	.
4F#	.
8r	.
=622	=622
4G	.
8r	.
4C#	.
8r	.
=623	=623
4D	.
8r	.
4BB	.
8r	.
=624	=624
4GG	.
8r	.
4AA	.
8r	.
=625	=625
8DDL	.
(8DD	.
8CC#	.
4DD)	.
8r	.
=626	=626
2.r	.
=627	=627
8r	.
(8DD	.
8CC#	.
4DD)	.
8r	.
=628	=628
2.r	.
=629	=629
8r	.
!LO:TX:t=cresc.	!
(8DD	<
8CC#	.
4DD)	.
8r	.
=630	=630
8r	.
(8FF#	.
8EE#	.
4FF#)	.
8r	.
=631	=631
8r	.
(8AA	.
8GG#	.
4AA)	.
8r	.
=632	=632
(2.FF	sf
=633	=633
8EEL)	.
(8EE	.
8DD#	.
8EEL)	.
8EE	.
8EE	.
=634	=634
8EEL	.
8EE	.
8EE	.
8EEL	.
8EE	.
8EE	.
=635	=635
8EEL	.
8EE	.
8EE	.
8EEL	.
8EE	.
8EE	.
=636	=636
8EEL	.
8AA	.
8C	.
8EL	sf
8E	.
8E	.
=637	=637
8EL	.
(8EE	.
8DD#	.
8EEL)	.
8EE	.
8EE	.
=638	=638
8EEL	.
8EE	.
8EE	.
8EEL	.
8EE	.
8EE	.
=639	=639
8EEL	.
8EE	.
8EE	.
8EEL	.
8EE	.
8EE	.
=640	=640
8EEL	.
8AA	.
8C	.
8EL	sf
8E	.
8E	.
=641	=641
4E	.
8r	.
4.r	.
=642	=642
2.r	.
=643	=643
2.r	.
=644	=644
2.r	.
=645	=645
2.r	.
=646	=646
(2.E	sf
=647	=647
4AA)	p
8r	.
4.r	.
=648	=648
2.r	.
=649	=649
2.r	.
=650	=650
2.r	.
=651	=651
4r	.
8r	.
(4.E	p
=652	=652
4F#)	.
8r	.
(4.G#	.
=653	=653
4A)	.
8r	.
4D	.
8r	.
=654	=654
4E	.
8r	.
4EE	.
8r	.
=655	=655
4AA	.
8EE	.
(4EE	.
8AA)	.
=656	=656
4GG	.
8EE	.
(4EE	.
8GG)	.
=657	=657
4AA	.
8r	.
4.A	.
=658	=658
4B	.
8r	.
(4.B	.
=659	=659
4A)	.
8A	.
4AA	.
8AA	.
=660	=660
4GG#	.
8G	.
4GG	.
8GG	.
=661	=661
4FF#	.
8r	.
4AA	.
8r	.
=662	=662
4BB	.
8r	.
4C#	.
8r	.
=663	=663
4D	.
8r	.
!LO:TX:t=cresc.	!
4AA	<
8r	.
=664	=664
4BB	.
8r	.
4C#	.
8r	.
=665	=665
4D	.
8r	.
4D	.
8r	.
=666	=666
4E	.
8r	.
4F#	.
8r	.
=667	=667
4E	sf
8r	.
4.r	.
=668	=668
4E	sf
8r	.
4r	.
8r	.
=669	=669
4E	sf
8r	.
4r	.
8r	.
=670	=670
4r	.
8r	.
8EEL	ff
8EE	.
8EE	.
=671	=671
(2.FF	p
=672	=672
2.EE)	.
=673	=673
(2.FF	.
=674	=674
2.EE)	.
=675	=675
(2.FF	.
=676	=676
2.EE)	.
=677	=677
4FF	.
8r	.
4r	.
8r	.
=678	=678
(2.D#	ff
=679	=679
8EL)	.
8E	.
8E	.
8EL	.
8E	.
8E	.
=680	=680
8EL	.
8E	.
8E	.
8EL	.
8E	.
8E	.
=681	=681
4A	.
8r	.
4r	.
8r	.
=682	=682
(2.E-	ff
=683	=683
4D)	.
8r	.
4r	.
8r	.
=684	=684
4D#	.
8r	.
4r	.
8r	.
=685	=685
4E	.
8r	.
4r	.
8r	.
=686	=686
4E	.
8r	.
4r	.
8r	.
=687	=687
8AAL	.
8C#	.
8E	.
(4F#	sf
8E)	.
=688	=688
8AAL	.
8C#	.
8E	.
(4F#	sf
8E)	.
=689	=689
8AAL	.
8C#	.
8E	.
(4F#	sf
8E)	.
=690	=690
(4F#	sf
8E)	.
(4F#	sf
8E)	.
=691	=691
4AA	.
8r	.
8r	.
8E	.
8E	.
=692	=692
4A	.
8r	.
8r	.
8EE	.
8EE	.
=693	=693
8AAL	.
8A	p
8A	.
8AL	.
8A	.
8A	.
=694	=694
8AL	.
8A	.
8A	.
8AL	.
8A	.
8A	.
=695	=695
!LO:TX:t=cresc.	!
8AL	<
8AA	.
8AA	.
8AAL	.
8AA	.
8AA	.
=696	=696
8AAL	.
8AA	.
8AA	.
8AAL	.
8AA	.
8AA	.
=697	=697
8AAL	.
8AA	.
8AA	.
8AAL	.
8AA	.
8AA	.
=698	=698
8AAL	.
8AA	.
8AA	.
8AAL	.
8AA	.
8AA	.
=699	=699
[2.AA	f
=700	=700
2.AA	.
=701	=701
[2.AA#	f
=702	=702
2.AA#	.
=703	=703
2.BB	f
=704	=704
2.C	f
=705	=705
4C#	f
8r	.
4r	.
8r	.
=706	=706
2.r	.
=707	=707
4r	.
8r	.
8r	.
(8G	p
8A	.
=708	=708
4G)	.
8r	.
8r	.
(8F#	.
8G	.
=709	=709
4F#)	.
8r	.
8r	.
(8E	.
8F#)	.
=710	=710
4E	.
8r	.
4r	.
8r	.
=711	=711
4D	.
8r	.
4.r	.
=712:|!	=712:|!
4C#	f
8r	.
4r	.
8r	.
=713	=713
2.r	.
=714	=714
4r	.
8r	.
8r	.
(8G	p
8A	.
=715	=715
4G)	.
8r	.
8r	.
(8F#	.
8G)	.
=716	=716
4F#	.
8r	.
8r	.
(8E	.
8F#	.
=717	=717
4E)	.
8r	.
4r	.
8r	.
=718	=718
2.r	.
=719	=719
2.r	.
=720	=720
4r	.
8r	.
8r	.
(8c	pp
8d)	.
=721	=721
4c	.
8r	.
8r	.
(8B	.
8c)	.
=722	=722
4B	.
8r	.
8r	.
(8A	.
8B	.
=723	=723
4A)	.
8r	.
4.r	.
=724	=724
2.r	.
=725	=725
2.r	.
=726	=726
2.r	.
=727	=727
8r	.
(8G	f
8F#	.
8GL)	.
(8E	.
8D#	.
=728	=728
8EL)	.
8A	.
8G	.
8F#L	.
8E	.
8D	.
=729	=729
4G	.
8r	.
[4.c	sf
=730	=730
2.c	.
=731	=731
4B	.
8r	.
4.r	.
=732	=732
2.r	.
=733	=733
2.r	.
=734	=734
2.r	.
=735	=735
[2.d	p
=736	=736
2.d	.
=737	=737
[2.c#	.
=738	=738
2.c#	.
=739	=739
[2.c	.
=740	=740
2.c	.
=741	=741
[2.B	.
=742	=742
2.B	.
=743	=743
8GL	.
(8GG	.
8FF#	.
8GGL)	.
8GG	.
8AA	.
=744	=744
8BBL	.
8C	.
8D	.
8EL	.
8F#	.
8G	.
=745	=745
4F#	.
8r	.
4r	.
8r	.
=746	=746
4r	.
8r	.
8BBL	.
8BB	.
8BB	.
=747	=747
8EL	.
(8EE	.
8DD#	.
8EEL)	.
8EE	.
8DD#	.
=748	=748
8GGL	.
8AA	.
8BB	.
8CL	.
8D	.
8E	.
=749	=749
4D	.
8r	.
4r	.
8r	.
=750	=750
2.r	.
=751	=751
2.r	.
=752	=752
4B	.
8r	.
[4.d	sf
=753	=753
4.d	.
4B	.
8r	.
=754	=754
(4.d	sf
4c#)	.
8r	.
=755	=755
2.r	.
=756	=756
4e	.
8r	.
[4.g	sf
=757	=757
4.g	.
4e	.
8r	.
=758	=758
(4.g	sf
4f#)	.
8r	.
=759	=759
4BB	.
8r	.
4r	.
8r	.
=760	=760
8BBL	sf
8BB	.
8BB	.
8BBL	.
8BB	.
8BB	.
=761	=761
8BBL	.
8BB	.
8BB	.
8BBL	.
8BB	.
8BB	.
=762	=762
8BBL	.
8BB	.
8BB	.
8BBL	.
8BB	.
8BB	.
=763	=763
4E	.
8r	.
[4.G	ff
=764	=764
2.G	.
=765	=765
8F#L	p
8F#	.
8F#	.
8F#L	.
8F#	.
8F#	.
=766	=766
8F#L	.
8F#	.
8F#	.
8F#L	.
8F#	.
8F#	.
=767	=767
4A	.
8r	.
[4.GG	ff
=768	=768
2.GG	.
=769	=769
8FF#L	.
8F#	.
8F#	.
8F#L	.
8F#	.
8F#	.
=770	=770
8F#L	.
8F#	.
8F#	.
8F#L	.
8F#	.
8F#	.
=771	=771
4BB	pp
8FF#	.
(4FF#	.
8BB)	.
=772	=772
4AA#	.
8FF#	.
(4FF#	.
8AA#)	.
=773	=773
4BB	.
8FF#	.
(4FF#	.
8BB)	.
=774	=774
4AA#	.
8FF#	.
(4FF#	.
8AA#)	.
=775	=775
4BB	.
8r	.
4r	.
8r	.
=776	=776
4r	.
8r	.
8EEL	.
8FF#	.
8GG#	.
=777	=777
4AA	pp
8EE	.
(4EE	.
8AA)	.
=778	=778
4GG#	.
8EE	.
(4EE	.
8GG#)	.
=779	=779
4AA	.
8EE	.
(4EE	.
8AA)	.
=780	=780
4GG#	.
8EE	.
(4EE	.
8GG#)	.
=781	=781
4AA	.
8r	.
4r	.
8r	.
=782	=782
4r	.
8r	.
8DDL	.
8EE	.
8FF#	.
=783	=783
4GG	pp
8DD	.
(4DD	.
8GG)	.
=784	=784
4FF#	.
8DD	.
(4DD	.
8FF#)	.
=785	=785
4GG	.
8DD	.
(4DD	.
8GG)	.
=786	=786
4FF#	.
8DD	.
(4DD	.
8FF#)	.
=787	=787
4GG	.
8G	.
4GG	.
8GG	.
=788	=788
2.FF#	pp
=789	=789
4EE	.
8E	.
4EE	.
8EE	.
=790	=790
2.DD	.
=791	=791
4CC#	.
8C#	.
4CC#	.
8CC#	.
=792	=792
2.CC#	.
=793	=793
4CC	.
8c	.
4C	.
8C	.
=794	=794
2.C	.
=795	=795
4BB	.
8B	.
4BB	.
8BB	.
=796	=796
2.BB	.
=797	=797
4BB-	.
8B-	.
4BB-	.
8BB-	.
=798	=798
2.BB-	.
=799	=799
!LO:TX:t=smor    -         -       -               -	!
4AA	.
8A	.
4AA	.
8AA	.
=800	=800
[2.AA	.
=801	=801
!LO:TX:t=zan    -         -                   -            -              -        -        -             -           -          -   do	!
4AA	.
8A	.
4AA	.
8AA	.
=802	=802
[2.AA	.
=803	=803
4AA	.
8A	.
4AA	.
8AA	.
=804	=804
[2.AA	.
=805	=805
4AA	.
8A	.
4AA	.
8AA	.
=806	=806
[2.AA	pp
=807	=807
8AAL	.
(8AA	ff
8GG#	.
8AAL)	.
(8AA	.
8GG#	.
=808	=808
8AAL)	.
8BB	.
8AA	.
8GGL	.
8FF#	.
8EE	.
=809	=809
4DD	f
8r	p
4.r	.
=810	=810
2.r	.
=811	=811
2.r	.
=812	=812
2.r	.
=813	=813
2.r	.
=814	=814
2.r	.
=815	=815
2.r	.
=816	=816
2.r	.
=817	=817
4r	.
8r	.
[4.d#	<
=818	=818
(4.d#	>
4e)	]
8r	.
=819	=819
4r	.
8r	.
(4.e	<
=820	=820
4.f#	>
4g)	]
8r	.
=821	=821
4r	.
8r	.
!LO:TX:t=cresc.	!
(4.B	<
=822	=822
4.c#)	sf
4d)	.
8D	.
=823	=823
4G	.
8E	.
4A	.
8AA	.
=824	=824
[4.D	.
8DL	.
(8F#	.
8E#)	.
=825	=825
(8F#L	.
8G)	.
8A	.
8AL	.
8A	.
8A	.
=826	=826
(4.A	sf
8GL)	.
(8A	.
8G#)	.
=827	=827
(8AL	.
8B)	.
8c	.
8cL	.
8c	.
8c	.
=828	=828
(4.c	sf
4B)	.
8r	.
=829	=829
2.r	.
=830	=830
(4.A	sf
4g)	.
8r	.
=831	=831
(8AL	sf
8g)	.
8r	.
(8AL	sf
8g)	.
8r	.
=832	=832
(8AL	.
[4g)	sf
4g	.
8f#	.
=833	=833
4G	.
8E	.
4A	.
8AA	.
=834	=834
4D	.
8r	.
4F#	p
8r	.
=835	=835
4G	.
8r	.
4C#	.
8r	.
=836	=836
4D	.
8r	.
4BB	.
8r	.
=837	=837
4GG	.
8r	.
4AA	.
8r	.
=838	=838
4DD	.
8r	.
4A	p
!LO:TX:t=cresc.	!
8d	.
=839	=839
(8dL	<
8c#)	.
8B	.
(8BL	.
8A)	.
8G	.
=840	=840
(8F#L	.
8E)	.
8D	.
(8DL	.
8C#)	.
8BB	.
=841	=841
(8BBL	.
8AA)	.
8GG	.
(8GGL	f
8FF#)	.
8EE	.
=842	=842
8DDL	.
8EE	.
8FF#	.
8GGL	.
8GG	.
8GG#	.
=843	=843
8AAL	[
(8AA	.
8GG#	.
8AAL)	p
8AA	.
8AA	.
=844	=844
8AAL	.
8AA	.
8AA	.
8AAL	.
8AA	.
8AA	.
=845	=845
8AAL	.
8AA	.
8AA	.
8AAL	.
8AA	.
8AA	.
=846	=846
8AAL	.
8D	.
8F#	.
8AL	sf
8A	.
8A	.
=847	=847
8AAL	.
(8AA	.
8GG#	.
8AAL)	.
8AA	.
8AA	.
=848	=848
8AAL	.
8AA	.
8AA	.
8AAL	.
8AA	.
8AA	.
=849	=849
8AAL	.
8AA	.
8AA	.
8AAL	.
8AA	.
8AA	.
=850	=850
8AAL	.
8D	.
8F	.
8AAL	sf
8AA	.
8AA	.
=851	=851
4AA	.
8r	.
4.r	.
=852	=852
2.r	.
=853	=853
2.r	.
=854	=854
2.r	.
=855	=855
2.r	.
=856	=856
(2.AA	sf
=857	=857
4DD)	p
8r	.
4D	.
8r	.
=858	=858
2.r	.
=859	=859
2.r	.
=860	=860
2.r	.
=861	=861
4r	.
8r	.
(4.A	p
=862	=862
4B)	.
8r	.
(4.c#	.
=863	=863
4d)	.
8r	.
4G	.
8r	.
=864	=864
4A	.
8r	.
4AA	.
8r	.
=865	=865
4D	.
8AA	.
(4AA	.
8D)	.
=866	=866
4C#	.
8AA	.
(4AA	.
8C#)	.
=867	=867
4D	.
8r	.
(4.d	.
=868	=868
4e)	.
8r	.
(4.e	.
=869	=869
4d)	.
8d	.
4D	.
8D	.
=870	=870
4C#	.
8c	.
4C	.
8C	.
=871	=871
4BB	.
8r	.
4D	.
8r	.
=872	=872
4E	.
8r	.
4F#	.
8r	.
=873	=873
4G	.
8r	.
!LO:TX:t=cresc.	!
4D	<
8r	.
=874	=874
4E	.
8r	.
4F#	.
8r	.
=875	=875
4G	.
8r	.
4G	.
8r	.
=876	=876
4A	.
8r	.
4B-	.
8r	.
=877	=877
4A	f
8r	.
4r	.
8r	.
=878	=878
4A	f
8r	.
4r	.
8r	.
=879	=879
4A	f
8r	.
4r	.
8r	.
=880	=880
4r	.
8r	.
8AAL	ff
8AA	.
8AA	.
=881	=881
!LO:TX:t=dol.	!
(2.BB-	fp
=882	=882
2.AA)	.
=883	=883
(2.BB-	.
=884	=884
2.AA)	.
=885	=885
(2.BB-	.
=886	=886
2.AA)	.
=887	=887
4BB-	.
8r	.
4r	.
8r	.
=888	=888
(2.GG#	ff
=889	=889
8AAL)	.
8A	.
8A	.
8AL	.
8A	.
8A	.
=890	=890
8AL	.
8A	.
8A	.
8AL	.
8A	.
8A	.
=891	=891
4D	.
8r	.
4.r	.
=892	=892
(2.AA-	ff
=893	=893
4GG)	.
8r	.
4r	.
8r	.
=894	=894
4GG#	.
8r	.
4r	.
8r	.
=895	=895
4AA	.
8r	.
4r	.
8r	.
=896	=896
4AA	.
8r	.
4r	.
8r	.
=897	=897
8DDL	.
8FF#	.
8AA	.
(4BB	sf
8AA)	.
=898	=898
8DDL	.
8FF#	.
8AA	.
(4BB	sf
8AA)	.
=899	=899
8DDL	.
8FF#	.
8AA	.
(4BB	sf
8AA)	.
=900	=900
(4BB	sf
8AA)	.
(4BB	sf
8AA)	.
=901	=901
4DD	.
8r	.
8r	.
8A	.
8A	.
=902	=902
4d	.
8r	.
8r	.
8AA	.
8AA	.
=903	=903
8DL	p
8d	.
8d	.
8dL	.
8d	.
8d	.
=904	=904
8dL	.
8d	.
8d	.
8dL	.
8d	.
8d	.
=905	=905
!LO:TX:t=cresc.	!
8dL	<
8D	.
8D	.
8DL	.
8D	.
8D	.
=906	=906
8DL	.
8D	.
8D	.
8DL	.
8D	.
8D	.
=907	=907
8DL	.
8D	.
8D	.
8DL	.
8D	.
8D	.
=908	=908
8DL	.
8D	.
8D	.
8DL	.
8D	.
8D	.
=909	=909
[2.D	f
=910	=910
2.D	.
=911	=911
[2.C#	f
=912	=912
2.C#	.
=913	=913
2.C	f
=914	=914
2.BB	f
=915	=915
2.BB	f
=916	=916
2.BB-	f
=917	=917
8AAL	p
(8AA	.
8GG#	.
8AAL)	.
8BB	.
8C#	.
=918	=918
8DL	.
8E	.
8F#	.
8GL	.
8G#	.
8A	.
=919	=919
[2.AA	.
=920	=920
8AA	.
8AA	.
8GG#	.
8AAL	.
8BB	.
8C#	.
=921	=921
8DL	.
8E	.
8F#	.
8GL	.
8G#	.
8A	.
=922	=922
[2.AA	.
=923	=923
[2.AA	.
=924	=924
[2.AA	.
=925	=925
!LO:TX:t=cresc.	!
[2.AA	<
=926	=926
[2.AA	.
=927	=927
[2.AA	.
=928	=928
[2.AA	.
=929	=929
[2.AA	.
=930	=930
2.AA	.
=931	=931
8AAL	f
(8AA	.
8GG#	.
8AAL)	.
(8AA	.
8GG#	.
=932	=932
8AAL)	.
(8AA	.
8GG#	.
8AAL)	.
8AA	.
8AA	.
=933	=933
4DD	sf
8r	.
4.r	.
=934	=934
2.r	.
=935	=935
2.r	.
=936	=936
2.r	.
=937	=937
8r	.
(8d	.
8c#	.
8dL)	.
(8B	.
8A#)	.
=938	=938
8BL	.
(8G	.
8F#	.
8GL)	.
(8E	.
8D#	.
=939	=939
8EL)	.
8F#	.
8G	.
8AL	.
8B	.
8c#	.
=940	=940
8dL	.
8e	.
8f#	.
4g	.
8r	.
=941	=941
2.DD	f
=942	=942
[2.D	sf
=943	=943
4.D	.
4C#	.
8BB	.
=944	=944
4AA	.
8GG	.
4FF#	.
8EE	.
=945	=945
4DD	.
8r	.
4D	.
8r	.
=946	=946
[2.d	sf
=947	=947
4.d	.
4c#	.
8B	.
=948	=948
4A	.
8G	.
4F#	.
8E	.
=949	=949
4D	ff
8r	.
4r	.
8r	.
=950	=950
4GG	.
8r	.
4r	.
8r	.
=951	=951
4AA	.
8r	.
4r	.
8r	.
=952	=952
4AA	.
8r	.
4r	.
8r	.
=953	=953
4D	.
8r	.
4r	.
8r	.
=954	=954
(2.AA	p
=955	=955
4D)	.
8r	.
4r	.
8r	.
=956	=956
(2.A	.
=957	=957
4d)	.
8r	.
4r	.
8r	.
=958	=958
2.r	.
=959	=959
4r	.
8r	.
8r	.
(8DD	pp
8CC#	.
=960	=960
4DD)	.
8r	.
8r	.
(8DD	pp
8CC#	.
=961	=961
4DD)	.
8r	.
4r	.
8r	.
=962	=962
4r	.
8r	.
8r	.
==	==
*-	*-
